X: 8691
T: Crossroads Fling, The
R: slide
M: 12/8
K: Dmajor
|:A|d2 e f2 d e2 d B^AB|dd/e/f a2 f g3 f2 e|
dcd f2 d e2 d B^AB|a2 g f2 e d3- d2:|
|:e|fgf f^ef gag gfg|f^ef a2 f =e3 Ace|
f2 f fed g2 g gfe|a2 g f2 e d3- d2:|

